X:423
T:Fife Hunt,The. RH.423
R:reel
S:Rev.R.Harrison’s MS,c1815,Cumbria
O:England
A:Temple Sowerby,Cumbria
Z:vmp.Simon Wilson. Review PJH, 2008.
M:C|
L:1/8
Q:1/2=100
K:D
g|fdd2 AFF2|Ee2^d e2eg|fdd2 AFF2|” cr”Dd2c “qu”d2 d:|!
g|fdad bdad|Ee2d (e2e)g|\
fdad bdad|A(d2c) d2dg|!
fdad bdad|Fe2^d (e2e)g|fada gbeg|Ad2c d2d|]

